icons/roadmap.svg

<svg width="24" height="24" version="1.1" viewBox="0 0 24 24" xmlns="http://www.w3.org/2000/svg">
 <path d="m3.2424 3.2424h1.7515v15.764h15.764v1.7515h-17.515v-17.515m4.3788 7.0061h8.7576v2.6273h-8.7576v-2.6273m3.5031 4.3788h8.7576v2.6273h-8.7576v-2.6273m-4.3788-9.6334h14.012v3.5031h-1.7515v-1.7515h-10.509v1.7515h-1.7515z" fill="#26a69a" stroke-width=".87576"/>
</svg>

<svg xmlns="http://www.w3.org/2000/svg" viewBox="0 0 24 24"><path d="M3.242 3.242h1.752v15.764h15.764v1.752H3.243V3.243m4.379 7.006h8.757v2.627H7.622V10.25m3.503 4.379h8.757v2.627h-8.757v-2.627M6.746 4.994h14.012v3.503h-1.751V6.746H8.497v1.751H6.747z" fill="#26a69a"/></svg>
